!!!COM: Music21
!!!OTL: Muiñeira de Xinzo
!!!OMV: pezas_muineiras_muineira-de-xinzo_muineira-de-xinzo-partitura.musicxml
**kern
*I"Bagpipes
*I'Bag
*clefG^2
*k[b-]
*F:
*M6/8
=1
!LO:TX:a:t=Presto
*MM189
!LO:TX:a:t=[quarter]=189
4r
8cc
8ccL
8bn
8ccJ
=||
8aaL
8ff
8ggJ
8ffL
8ee
8ffJ
=
4dd
8cc
8bb-L
8aa
8bb-J
=
8ggL
8ee
8ggJ
8cccL
8ddd
8cccJ
=
8aaL
8ff
8ddJ
4.cc
=
8aaL
8ff
8ggJ
8ffL
8ee
8ffJ
=
4dd
8cc
8bb-L
8aa
8bb-J
!!linebreak:original
=
8ggL
8ee
8ggJ
8cccL
8ddd
8cccJ
=||
4ff
8cc
8ccL
8bn
8ccJ
=||
8aaL
8ff
8ggJ
8ffL
8ee
8ffJ
=
4dd
8cc
8bb-L
8aa
8bb-J
=
8ggL
8ee
8ggJ
8cccL
8ddd
8cccJ
=
8aaL
8ff
8ddJ
4.cc
=
8aaL
8ff
8ggJ
8ffL
8ee
8ffJ
!!linebreak:original
=
4dd
8cc
8bb-L
8aa
8bb-J
!!linebreak:original
=
8ggL
8ee
8ggJ
8cccL
8ddd
8cccJ
=||
4ff
8cc
8ccL
8bn
8ccJ
=||
4dd
8cc
8bb-L
8aa
8ggJ
=
4aa
[8ff
8ffL]
8ee
8ffJ
=
8ggL
8aa
8bb-J
8ggL
8ee
8ggJ
=
8cccL
8ddd
8cccJ
8ccL
8bn
8ccJ
=
4dd
8cc
8bb-L
8aa
8ggJ
!!linebreak:original
=
4aa
[8ff
8ffL]
8ee
8ffJ
=
8ggL
8aa
8bb-J
8ggL
8ee
8ggJ
=
4ff
8cc
8ccL
8bn
8ccJ
=||
4dd
8cc
8bb-L
8aa
8ggJ
=
4aa
[8ff
8ffL]
8ee
8ffJ
=
8ggL
8aa
8bb-J
8ggL
8ee
8ggJ
=
8cccL
8ddd
8cccJ
8ccL
8bn
8ccJ
!!linebreak:original
=
4dd
8cc
8bb-L
8aa
8ggJ
!!linebreak:original
=
4aa
[8ff
8ffL]
8ee
8ffJ
=
8ggL
8aa
8bb-J
8ggL
8ee
8ggJ
=
4ff
8cc
8ccL
8bn
8ccJ
=||
8aaL
8ff
8ggJ
8ffL
8ee
8ffJ
=
4dd
8cc
8bb-L
8aa
8bb-J
=
8ggL
8ee
8ggJ
8cccL
8ddd
8cccJ
=
8aaL
8ff
8ddJ
4.cc
!!linebreak:original
=
8aaL
8ff
8ggJ
8ffL
8ee
8ffJ
=
4dd
8cc
8bb-L
8aa
8bb-J
=
8ggL
8ee
8ggJ
8cccL
8ddd
8cccJ
=
4ff
8cc
8ccL
8bn
8ccJ
=||
8aaL
8ff
8ggJ
8ffL
8ee
8ffJ
=
4dd
8cc
8bb-L
8aa
8bb-J
=
8ggL
8ee
8ggJ
8cccL
8ddd
8cccJ
!!linebreak:original
=
8aaL
8ff
8ddJ
4.cc
!!linebreak:original
=
8aaL
8ff
8ggJ
8ffL
8ee
8ffJ
=
4dd
8cc
8bb-L
8aa
8bb-J
=
8ggL
8ee
8ggJ
8cccL
8ddd
8cccJ
=
4ff
8cc
8ccL
8bn
8ccJ
=||
4.dd
8eeL
8cc
8eeJ
=
2ff
8eeL
8ffJ
=
8ggL
8aa
8bb-J
8ggL
8ee
8ggJ
!!linebreak:original
=
8cccL
8ddd
8cccJ
8ccL
8bn
8ccJ
=
4.dd
8eeL
8cc
8eeJ
=
8ffL
8ee
8ffJ
8ggL
8ff
8ggJ
=
8aaL
8bb-
8aaJ
8ggL
8ee
8ggJ
=
4ff
8cc
8ccL
8bn
8ccJ
=||
4.dd
8eeL
8cc
8eeJ
=
2ff
8eeL
8ffJ
=
8ggL
8aa
8bb-J
8ggL
8ee
8ggJ
!!linebreak:original
=
8cccL
8ddd
8cccJ
8ccL
8bn
8ccJ
=
4.dd
8eeL
8cc
8eeJ
=
8ffL
8ee
8ffJ
8ggL
8ff
8ggJ
=
8aaL
8bb-
8aaJ
8ggL
8ee
8ggJ
=
4ff
8cc
8ccL
8bn
8ccJ
=||
8ff
8r
8r
4.r
==
*-
